X: 305765
M: 6/8
L: 1/8
K: D
d |\
dcd dcd | f3 d2d | dcd dcd | ^d3 e2=c |\
dcd dcd | Hf3 d2d | b2a age | d2f d2 H|]
d |\
ced cBA | d2f a2f | ced cBA | d2f [a2A2][fd] |\
ced cBA | d2f a2a | ^gab geg | a2b ge"^D.C."c |]
d2c B2^A | Bcd e2f | ged cfe | edc B2F |\
d2c B2^A | Bcd e2f | gfe cf^A | B3 B2"^D.C."d |]


